X: 10250
T: Doc Holliday's
R: reel
M: 4/4
K: Eminor
ebae fged|e/g/b ag ged2|e/g/b ag g2ed|e/f/g Be dBAB:|
|:GDGA B2dB|GDGe d/B/A BA|GDGA B2dB|1 edde B2AB:|2 egde BABA||

